X:15
T:Hollow Poplar
G:Key: G
M:C|
S:Wedgwood Ale House Tuesday jams
Z:abc-transcription Josh Larios <hades@elsewhere.org>, 2020.01.13
Z:abc-copyright This transcription is licensed under a Creative Commons Attribution-ShareAlike 4.0 International License.
K:G
[P:A]y0|: "G"d2-dd d2 Bc | d2 B2 AG AB | "C"c2-cc c2 AB | c2 B2 AG EG | 
"G"DE GA Bd ef | g2 f2 ed BA | GA B2 "D"AG F2 | "G"G2-GG G2 Bc :| 
[P:B]y|:"G"d4 g2 ef | g2 f2 e2 d2 | "D"fa- ab a2 fg | a2 f2 ed ef|
"G"gf ef gf ef|"C"g2 f2 ed BA|"G"GA BG "D"AGF2|"G"G2-GG G2 Bc :|]

